icons/1_Primary/Kerberos.io.svg

<svg xmlns="http://www.w3.org/2000/svg" width="1024" height="1024" fill="none">
   <g clip-path="url(#a)">
      <path fill="#BA6561" d="M512 1024c282.77 0 512-229.23 512-512S794.77 0 512 0 0 229.23 0 512s229.23 512 512 512Z"/>
      <path fill="#fff" d="M729.859 368.88c-56.5-18.23-64.57-25-64.57-25-18.22-35.95-43.22-47.11-60.63-50.23-12.13-18.45-29.569-68.12-36.479-64.41-8.49 4.64-17.141 26.57-17.141 26.57-3.25-8-11.89-29.66-21.38-22.87-12.32 9-26.61 52.85-26.61 72 0 14.91-7.899 39.46-14.559 57.54 7.75 7.33 15.29 17.12 21.93 30.23 0 0 8.07 6.79 64.57 25 37.799 12.21 15.44 37.23 15.44 37.23s-3.861 10-15.081 19.64c1.671 3.37 3.29 6.48 4.81 9.14a86.825 86.825 0 0 1 38.091 20.61A211.349 211.349 0 0 1 632.289 448s11.05-.62 55.94-5.26c44.731-4.64 57.07-36.62 57.07-36.62s22.37-25.03-15.44-37.24Zm-104.359-1.7c-6.51 1.86-18 4-25.49-17.76 0 0 36.26-18.09 39.37 17.76a28.092 28.092 0 0 0-13.88 0Zm-180.391 30.9s36.241-18.07 39.371 17.78a27.905 27.905 0 0 0-13.88 0c-6.51 1.86-17.981 4.01-25.491-17.78ZM698.57 568.53c-56.49-18.23-64.56-25-64.56-25a114.407 114.407 0 0 0-16.791-25c-15-16.67-31.359-23-43.839-25.28A127.675 127.675 0 0 1 566.5 481c-8.28 5-19.12 9.16-33.17 10.62-8.82.91-16.32 1.66-22.69 2.29l-38.35 4a63.342 63.342 0 0 0-.55 6.64c-.51 22.29-12.13 54.18-18.89 70.35a69.14 69.14 0 0 1-7.051 10.84 51.442 51.442 0 0 1-3.529 3.63c-45 32.5-73.31.74-90.71-42.66-9.29-23.17-15.481-49.66-19.451-71.43a34.404 34.404 0 0 0-.229-1.27c-.167-.927-.33-1.847-.49-2.76-1.49-9.37-1.56-20.1-1-30.28a289.372 289.372 0 0 1 4.25-30.9l2.78-10.2c3.11-9.1 7.41-21.47 10.24-28.88 4.5-6.8 8-8.76 8-8.76 28-25.81 82.57-21.74 93.59-20.62-12.11-19.05-29.14-67.25-36-63.59-8.49 4.64-17.141 26.58-17.141 26.58-3.25-8-11.89-29.67-21.37-22.87-10.89 7.91-23.299 43-26.049 64.34l-24.641 88.78c-15.85 41.49-23.679 68.51-27.109 86.09-3.34 13.83-49.22 206.51-7.18 192.21 0 0 95-18.08 153.5 30.91 0 0 114.069 94.74 141.92-19.26.418-1.21.644-2.479.669-3.76.06-3.94.251-7.81.551-11.6v-.42c.08-1 .169-2 .259-3 .84-7.3 3.391-21.61 3.671-23.18.7-3.71 3.389-14.06 3.389-14.06v-.14l.38-1.33c1.82-6.07 6.81-19.56 6.81-19.56h-.069l.069-.17s11.051-.62 55.931-5.26c44.88-4.64 57.16-36.54 57.16-36.54s22.39-25.04-15.43-37.25Zm-104.341-1.86c-6.51 1.86-18 4-25.489-17.78 0 0 36.239-18.07 39.369 17.78a27.899 27.899 0 0 0-13.89.01l.01-.01Z"/>
   </g>
   <defs>
      <clipPath id="a">
         <path fill="#fff" d="M0 0h1024v1024H0z"/>
      </clipPath>
   </defs>
</svg>

<svg width="1024" height="1024" viewBox="0 0 1024 1024" fill="none" xmlns="http://www.w3.org/2000/svg">
<g clip-path="url(#clip0_2_2595)">
<path d="M512 1024C794.77 1024 1024 794.77 1024 512C1024 229.23 794.77 0 512 0C229.23 0 0 229.23 0 512C0 794.77 229.23 1024 512 1024Z" fill="#BA6561"/>
<path d="M729.859 368.88C673.359 350.65 665.289 343.88 665.289 343.88C647.069 307.93 622.069 296.77 604.659 293.65C592.529 275.2 575.09 225.53 568.18 229.24C559.69 233.88 551.039 255.81 551.039 255.81C547.789 247.81 539.149 226.15 529.659 232.94C517.339 241.94 503.049 285.79 503.049 304.94C503.049 319.85 495.15 344.4 488.49 362.48C496.24 369.81 503.78 379.6 510.42 392.71C510.42 392.71 518.49 399.5 574.99 417.71C612.789 429.92 590.43 454.94 590.43 454.94C590.43 454.94 586.569 464.94 575.349 474.58C577.02 477.95 578.639 481.06 580.159 483.72C594.393 487.262 607.498 494.353 618.25 504.33C620.316 484.997 625.041 466.041 632.289 448C632.289 448 643.339 447.38 688.229 442.74C732.96 438.1 745.299 406.12 745.299 406.12C745.299 406.12 767.669 381.09 729.859 368.88ZM625.5 367.18C618.99 369.04 607.5 371.18 600.01 349.42C600.01 349.42 636.27 331.33 639.38 367.18C634.826 366.019 630.053 366.019 625.5 367.18ZM445.109 398.08C445.109 398.08 481.35 380.01 484.48 415.86C479.927 414.691 475.152 414.691 470.6 415.86C464.09 417.72 452.619 419.87 445.109 398.08ZM698.57 568.53C642.08 550.3 634.01 543.53 634.01 543.53C629.539 534.493 623.893 526.087 617.219 518.53C602.219 501.86 585.86 495.53 573.38 493.25C570.863 489.296 568.567 485.206 566.5 481C558.22 486 547.38 490.16 533.33 491.62C524.51 492.53 517.01 493.28 510.64 493.91L472.29 497.91C471.99 500.112 471.807 502.329 471.74 504.55C471.23 526.84 459.61 558.73 452.85 574.9C450.843 578.726 448.483 582.355 445.799 585.74C444.683 587.007 443.505 588.219 442.27 589.37C397.27 621.87 368.96 590.11 351.56 546.71C342.27 523.54 336.079 497.05 332.109 475.28C332.043 474.867 331.966 474.443 331.88 474.01C331.713 473.083 331.55 472.163 331.39 471.25C329.9 461.88 329.83 451.15 330.39 440.97C331.25 430.601 332.669 420.286 334.64 410.07L337.42 399.87C340.53 390.77 344.83 378.4 347.66 370.99C352.16 364.19 355.66 362.23 355.66 362.23C383.66 336.42 438.23 340.49 449.25 341.61C437.14 322.56 420.11 274.36 413.25 278.02C404.76 282.66 396.109 304.6 396.109 304.6C392.859 296.6 384.219 274.93 374.739 281.73C363.849 289.64 351.44 324.73 348.69 346.07L324.049 434.85C308.199 476.34 300.37 503.36 296.94 520.94C293.6 534.77 247.72 727.45 289.76 713.15C289.76 713.15 384.76 695.07 443.26 744.06C443.26 744.06 557.329 838.8 585.18 724.8C585.598 723.59 585.824 722.321 585.849 721.04C585.909 717.1 586.1 713.23 586.4 709.44V709.02C586.48 708.02 586.569 707.02 586.659 706.02C587.499 698.72 590.05 684.41 590.33 682.84C591.03 679.13 593.719 668.78 593.719 668.78V668.64L594.099 667.31C595.919 661.24 600.909 647.75 600.909 647.75H600.84L600.909 647.58C600.909 647.58 611.96 646.96 656.84 642.32C701.72 637.68 714 605.78 714 605.78C714 605.78 736.39 580.74 698.57 568.53ZM594.229 566.67C587.719 568.53 576.229 570.67 568.74 548.89C568.74 548.89 604.979 530.82 608.109 566.67C603.553 565.502 598.775 565.506 594.219 566.68L594.229 566.67Z" fill="white"/>
</g>
<defs>
<clipPath id="clip0_2_2595">
<rect width="1024" height="1024" fill="white"/>
</clipPath>
</defs>
</svg>
